src/pos-icons/account-minus.svg

<svg height="24" viewBox="0 0 24 24" width="24" xmlns="http://www.w3.org/2000/svg"><path d="m15 14c-2.67 0-8 1.33-8 4v2h16v-2c0-2.67-5.33-4-8-4m-14-4v2h8v-2m6 2a4 4 0 0 0 4-4 4 4 0 0 0 -4-4 4 4 0 0 0 -4 4 4 4 0 0 0 4 4z"/></svg>

<?xml version="1.0" encoding="UTF-8"?><!DOCTYPE svg PUBLIC "-//W3C//DTD SVG 1.1//EN" "http://www.w3.org/Graphics/SVG/1.1/DTD/svg11.dtd"><svg xmlns="http://www.w3.org/2000/svg" xmlns:xlink="http://www.w3.org/1999/xlink" version="1.1" id="mdi-account-minus" width="24" height="24" viewBox="0 0 24 24"><path d="M15,14C12.33,14 7,15.33 7,18V20H23V18C23,15.33 17.67,14 15,14M1,10V12H9V10M15,12A4,4 0 0,0 19,8A4,4 0 0,0 15,4A4,4 0 0,0 11,8A4,4 0 0,0 15,12Z" /></svg>
